public/Lbg.svg

<svg width='393' height='636' viewBox='0 0 393 636' fill='none' xmlns='http://www.w3.org/2000/svg'><g clip-path='url(#clip0_9_77861)'><g opacity='0.71'><path d='M62.6952 134.66L-75 71.9882L62.6952 0L200.39 71.9882L62.6952 134.66Z' fill='#F2F6FE'/><path d='M200.39 71.9883V427.472L62.6953 489.904V134.658L200.39 71.9883Z' fill='url(#paint0_linear_9_77861)'/><path d='M-75 71.9883L62.6952 134.659V489.901L-75 409.631' fill='url(#paint1_linear_9_77861)'/><path d='M117.609 218.09L255.305 280.761V636.003L117.609 555.733' fill='url(#paint2_linear_9_77861)'/><path d='M255.305 280.76L117.609 218.09L255.305 146.102L392.997 218.09L255.305 280.76Z' fill='#F2F6FE'/><path d='M393 218.09V573.573L255.305 636.005V280.761L393 218.09Z' fill='url(#paint3_linear_9_77861)'/><path d='M117.609 218.09L255.305 280.761V636.003L117.609 555.733' fill='url(#paint4_linear_9_77861)'/></g></g><defs><linearGradient id='paint0_linear_9_77861' x1='124.796' y1='547.158' x2='236.104' y2='70.7977' gradientUnits='userSpaceOnUse'><stop stop-color='white' stop-opacity='0'/><stop offset='1' stop-color='#E0E7FD'/></linearGradient><linearGradient id='paint1_linear_9_77861' x1='12.4365' y1='287.631' x2='-169.528' y2='271.179' gradientUnits='userSpaceOnUse'><stop stop-color='white'/><stop offset='1' stop-color='#E0E7FD'/></linearGradient><linearGradient id='paint2_linear_9_77861' x1='205.046' y1='433.733' x2='23.0819' y2='417.281' gradientUnits='userSpaceOnUse'><stop stop-color='white'/><stop offset='1' stop-color='#E0E7FD'/></linearGradient><linearGradient id='paint3_linear_9_77861' x1='317.405' y1='693.26' x2='428.713' y2='216.899' gradientUnits='userSpaceOnUse'><stop stop-color='white' stop-opacity='0'/><stop offset='1' stop-color='#E0E7FD'/></linearGradient><linearGradient id='paint4_linear_9_77861' x1='205.046' y1='433.733' x2='23.0819' y2='417.28' gradientUnits='userSpaceOnUse'><stop stop-color='white' stop-opacity='0'/><stop offset='1' stop-color='#E0E7FD'/></linearGradient><clipPath id='clip0_9_77861'><rect width='468' height='636' fill='white' transform='translate(-75)'/></clipPath></defs></svg>

<svg xmlns="http://www.w3.org/2000/svg" width="393" height="636" fill="none" viewBox="0 0 393 636"><g clip-path="url(#a)" opacity=".71"><path fill="#f2f6fe" d="M62.695 134.66-75 71.988 62.695 0 200.39 71.988z"/><path fill="url(#b)" d="M200.39 71.988v355.484L62.695 489.904V134.658z"/><path fill="url(#c)" d="M-75 71.988 62.695 134.66v355.242L-75 409.631"/><path fill="url(#d)" d="m117.609 218.09 137.696 62.671v355.242l-137.696-80.27"/><path fill="#f2f6fe" d="m255.305 280.76-137.696-62.67 137.696-71.988 137.692 71.988z"/><path fill="url(#e)" d="M393 218.09v355.483l-137.695 62.432V280.761z"/><path fill="url(#f)" d="m117.609 218.09 137.696 62.671v355.242l-137.696-80.27"/></g><defs><linearGradient id="b" x1="124.796" x2="236.104" y1="547.158" y2="70.798" gradientUnits="userSpaceOnUse"><stop stop-color="#fff" stop-opacity="0"/><stop offset="1" stop-color="#e0e7fd"/></linearGradient><linearGradient id="c" x1="12.437" x2="-169.528" y1="287.631" y2="271.179" gradientUnits="userSpaceOnUse"><stop stop-color="#fff"/><stop offset="1" stop-color="#e0e7fd"/></linearGradient><linearGradient id="d" x1="205.046" x2="23.082" y1="433.733" y2="417.281" gradientUnits="userSpaceOnUse"><stop stop-color="#fff"/><stop offset="1" stop-color="#e0e7fd"/></linearGradient><linearGradient id="e" x1="317.405" x2="428.713" y1="693.26" y2="216.899" gradientUnits="userSpaceOnUse"><stop stop-color="#fff" stop-opacity="0"/><stop offset="1" stop-color="#e0e7fd"/></linearGradient><linearGradient id="f" x1="205.046" x2="23.082" y1="433.733" y2="417.28" gradientUnits="userSpaceOnUse"><stop stop-color="#fff" stop-opacity="0"/><stop offset="1" stop-color="#e0e7fd"/></linearGradient><clipPath id="a"><path fill="#fff" d="M-75 0h468v636H-75z"/></clipPath></defs></svg>
